X: 42468
T: Wet The Tea
R: jig
M: 6/8
K: Eminor
|:gfe fed|ABF G2E|~F3 ~A3|~B3 gee|
~g3 fed|ABF G2E|~F3 ~A3|GED E3:|
|:~e3 geB|ede ~g2b|afd dAF|DFA d2B|
[1 ~e3 geB|~e3 ~g2a|agb afd|efd e2B:|
[2 c3 d^cd|ede g2e|dBA GFD|EFD E3|

